X:1
T:Some Day
T:Some Day
T:John Bunyan Herbert
T:Lina H. Barton, 1881
T:Public Domain Courtesy of the Cyber Hymnal™
C:John Bunyan Herbert
Z:Public Domain
Z:Courtesy of the Cyber Hymnal™
%%score ( 1 2 ) ( 3 4 )
L:1/8
Q:1/4=90
M:4/4
K:D
V:1 treble 
V:2 treble 
V:3 bass 
V:4 bass 
V:1
 [DF][EA] | [Dd]3 [DF] [DB][^DA] | ([FA][EG]) [EG]2 C[CE] | [DA]3 [EG] [DF][CG] | %4
w: 1.~Some day|Christ will call us|home- * ward To His|home, we know not|
w: 2.~Some day|may come when we’re|work- * ing In the|vine- yard He has|
w: 3.~Some day|may be ve- ry|near * us, Near- er|to us than we|
 ([DF]2 [CE]2) [DA][CG] | [DF]3 [EA] [Dd][D^G] | ([DB][CA]) [CA]2 D[=CD] | [B,B][EG] [DF]2 [CE]2 | %8
w: where; * Some day|we shall hear Him|call- * ing; Some day|we shall see Him|
w: given, * Or it|may be when we’re|stray- * ing In the|fields we know for-|
w: think; * Ev- en|now we may be|stand- * ing On the|si- lent riv- er’s|
 D4 z2 ||[M:2/4]"^Refrain" [Fd]2 [GB]2 | [EA]2 [DF]2 | [EA]E [DF][D^G] | [EA][EB] [Ec]2 | %13
w: there.|||||
w: bidd’n.|Some day,|some day|we shall an- swer|to His call;|
w: brink.|||||
 [Dd]2 B2 | [EA]2 !fermata![DF]2 | AF D[Dd] | [Fd][Gc] !fermata![Fd]2 |] %17
w: ||||
w: Some day,|some day|Christ will con- quer|o- ver all.|
w: ||||
V:2
 x2 | x6 | x4 C x | x6 | x6 | x6 | x4 D x | x6 | D4 x2 ||[M:2/4] x4 | x4 | x E x2 | x4 | x2 (DG) | %14
 x4 | AF D x | x4 |] %17
V:3
 [D,A,][C,A,] | [B,,F,]3 [A,,=C] [G,,B,][B,,B,] | [E,B,]2 [E,B,]2 A,[G,A,] | %3
 [F,A,]3 [C,A,] [D,A,][E,A,] | A,4 [F,A,][E,A,] | [D,A,]3 [C,A,] [B,,F,]E, | %6
 [A,,E,]2 [A,,G,]2 [B,,F,][A,,F,] | [G,,G,][G,,B,] [A,,A,]2 [A,,G,]2 | [D,F,]4 z2 || %9
[M:2/4] (A,D) [G,D]2 | [A,C]2 [B,D]2 | [A,C][C,A,] [D,A,][B,,E,] | [C,E,][E,^G,] A,2 | %13
 (A,D) [G,D]2 | [A,C]2 !fermata![B,D]2 | A,F, D,[B,,F,] | [A,,A,][A,,A,] !fermata![D,A,]2 |] %17
V:4
 x2 | x6 | x4 A, x | x6 | (A,3 G,) x2 | x5 E, | x6 | x6 | x6 ||[M:2/4] D,2 x2 | x4 | x4 | %12
 x2 (A,=G,) | F,2 x2 | x4 | A,F, D, x | x4 |] %17

